app/images/nav_icons/arrow_all.svg

<svg width="7" height="12" viewBox="0 0 7 12" fill="none" xmlns="http://www.w3.org/2000/svg">
<path fill-rule="evenodd" clip-rule="evenodd" d="M1.33335 11.6868C1.18366 11.6868 1.03385 11.6257 0.922383 11.5044C0.818706 11.3904 0.767088 11.2449 0.767088 11.0995C0.767088 10.9433 0.826483 10.7887 0.944013 10.6727L5.49098 6.19798L0.944013 1.72391C0.826483 1.60855 0.767088 1.45331 0.767088 1.29743C0.767088 1.15231 0.818706 1.00656 0.922383 0.89316C1.13799 0.656868 1.49562 0.647388 1.72278 0.870276L6.70005 5.76822C6.70463 5.77213 6.70932 5.77704 6.7139 5.78227C6.76173 5.83129 6.80053 5.88881 6.82731 5.95057C6.82823 5.95057 6.82823 5.95091 6.82823 5.95091C6.86233 6.02868 6.87973 6.11234 6.87973 6.19536C6.87973 6.19634 6.87973 6.19732 6.87973 6.19798C6.87973 6.2836 6.86233 6.36889 6.82731 6.44734C6.82731 6.44798 6.82628 6.44798 6.82628 6.44798C6.82628 6.44897 6.82628 6.44897 6.82628 6.44897C6.82628 6.44897 6.82628 6.44897 6.82628 6.44994C6.7987 6.5091 6.76173 6.56498 6.71481 6.61368C6.71024 6.61891 6.70463 6.62282 6.70005 6.62838L1.72278 11.5266C1.61361 11.6348 1.47342 11.6868 1.33335 11.6868Z" fill="#262626"/>
</svg>

<svg width="7" height="12" fill="none" xmlns="http://www.w3.org/2000/svg"><path fill-rule="evenodd" clip-rule="evenodd" d="M1.333 11.687a.55.55 0 01-.41-.183.6.6 0 01.021-.831l4.547-4.475L.944 1.724a.596.596 0 01-.177-.427c0-.145.052-.29.155-.404a.551.551 0 01.8-.023L6.7 5.768a.563.563 0 01.127.182h.001a.61.61 0 01.052.245v.003a.62.62 0 01-.053.25v.001a.602.602 0 01-.112.165l-.015.014-4.977 4.899a.55.55 0 01-.39.16z" fill="#262626"/></svg>
